ui/StatusQ/src/assets/img/icons/reaction-b.svg

<svg fill="none" height="24" viewBox="0 0 24 24" width="24" xmlns="http://www.w3.org/2000/svg" xmlns:xlink="http://www.w3.org/1999/xlink"><clipPath id="a"><path d="m0 0h24v24h-24z"/></clipPath><g clip-path="url(#a)" fill="#000"><path d="m20.0466 0c.4142 0 .75.335786.75.75v1.9c0 .33137.2686.6.6.6h1.8534c.4142 0 .75.33579.75.75s-.3358.75-.75.75h-1.8534c-.3314 0-.6.26863-.6.6v1.9c0 .41421-.3358.75-.75.75s-.75-.33579-.75-.75v-1.9c0-.33137-.2686-.6-.6-.6h-1.949c-.4143 0-.75-.33579-.75-.75s.3357-.75.75-.75h1.949c.3314 0 .6-.26863.6-.6v-1.900001c0-.414213.3358-.749999.75-.749999z"/><path d="m14.2815 2.94644c.1035-.32069-.0446-.70116-.3755-.76501-.617-.11907-1.2542-.18143-1.906-.18143-5.52285 0-10 4.47715-10 10 0 5.5228 4.47715 10 10 10 5.5228 0 10-4.4772 10-10 0-.5697-.0476-1.1282-.1391-1.6719-.0583-.34585-.4618-.49856-.7923-.38124-.0636.02258-.1283.04289-.194.06084-.3.0819-.5232.3714-.4755.6787.0664.4281.1009.8668.1009 1.3136 0 4.6944-3.8056 8.5-8.5 8.5-4.69442 0-8.5-3.8056-8.5-8.5 0-4.69442 3.80558-8.5 8.5-8.5.5194 0 1.0279.04659 1.5216.13581.3208.05798.6285-.18155.7058-.49826.0158-.06463.0338-.12836.0541-.19111z"/><g clip-rule="evenodd" fill-rule="evenodd"><path d="m5.89453 13.3219c.27326-.3137.70187-.481 1.14676-.411.89472.1409 2.58134.3359 5.06021.3359 2.4789 0 4.1655-.195 5.0602-.3359.4449-.07.8735.0973 1.1467.411.2828.3246.3931.8062.1856 1.2666-.6338 1.4063-2.4 4.1583-6.3925 4.1583-3.99254 0-5.75874-2.752-6.39253-4.1583-.20748-.4604-.09716-.942.18556-1.2666zm2.42199 1.2579c-.40964-.0392-.69319.3937-.43612.715.78957.987 2.10091 1.952 4.2211 1.952 2.1202 0 3.4315-.965 4.2211-1.952.257-.3213-.0265-.7542-.4361-.715-.9685.0927-2.2302.167-3.785.167s-2.81648-.0743-3.78498-.167z"/><path d="m7.09479 7.0389c.28138-.33765.7832-.38327 1.12085-.10189l2.72856 2.2738c.2574.2145.3529.56724.2388.88229-.114.315-.4132.5249-.7483.5249-1.26177 0-3.09973.4086-4.12567 1.05-.37268.233-.86368.1198-1.0967-.2529-.23301-.3726-.11979-.8636.25289-1.0967.70104-.43828 1.62033-.77017 2.54756-.98777.18666-.0438.24772-.28436.10043-.4071l-.91653-.76378c-.33765-.28137-.38327-.7832-.10189-1.12085z"/><path d="m16.9052 7.0389c-.2814-.33765-.7832-.38327-1.1208-.10189l-2.7286 2.2738c-.2574.2145-.3529.56724-.2388.88229.114.315.4132.5249.7483.5249 1.2618 0 3.0997.4086 4.1257 1.05.3726.233.8637.1198 1.0967-.2529.233-.3726.1198-.8636-.2529-1.0967-.7011-.43828-1.6203-.77017-2.5476-.98777-.1866-.0438-.2477-.28436-.1004-.4071l.9165-.76378c.3377-.28137.3833-.7832.1019-1.12085z"/></g></g></svg>

<svg width="24" height="24" viewBox="0 0 24 24" fill="none" xmlns="http://www.w3.org/2000/svg">
<g clip-path="url(#clip0)">
<path d="M20.0466 0C20.4608 0 20.7966 0.335786 20.7966 0.75V2.65C20.7966 2.98137 21.0652 3.25 21.3966 3.25H23.25C23.6642 3.25 24 3.58579 24 4C24 4.41421 23.6642 4.75 23.25 4.75H21.3966C21.0652 4.75 20.7966 5.01863 20.7966 5.35V7.25C20.7966 7.66421 20.4608 8 20.0466 8C19.6324 8 19.2966 7.66421 19.2966 7.25V5.35C19.2966 5.01863 19.028 4.75 18.6966 4.75H16.7476C16.3333 4.75 15.9976 4.41421 15.9976 4C15.9976 3.58579 16.3333 3.25 16.7476 3.25H18.6966C19.028 3.25 19.2966 2.98137 19.2966 2.65V0.749999C19.2966 0.335786 19.6324 0 20.0466 0Z" fill="black"/>
<path d="M14.2815 2.94644C14.385 2.62575 14.2369 2.24528 13.906 2.18143C13.289 2.06236 12.6518 2 12 2C6.47715 2 2 6.47715 2 12C2 17.5228 6.47715 22 12 22C17.5228 22 22 17.5228 22 12C22 11.4303 21.9524 10.8718 21.8609 10.3281C21.8026 9.98225 21.3991 9.82954 21.0686 9.94686C21.005 9.96944 20.9403 9.98975 20.8746 10.0077C20.5746 10.0896 20.3514 10.3791 20.3991 10.6864C20.4655 11.1145 20.5 11.5532 20.5 12C20.5 16.6944 16.6944 20.5 12 20.5C7.30558 20.5 3.5 16.6944 3.5 12C3.5 7.30558 7.30558 3.5 12 3.5C12.5194 3.5 13.0279 3.54659 13.5216 3.63581C13.8424 3.69379 14.1501 3.45426 14.2274 3.13755C14.2432 3.07292 14.2612 3.00919 14.2815 2.94644Z" fill="black"/>
<path fill-rule="evenodd" clip-rule="evenodd" d="M5.89453 13.3219C6.16779 13.0082 6.5964 12.8409 7.04129 12.9109C7.93601 13.0518 9.62263 13.2468 12.1015 13.2468C14.5804 13.2468 16.267 13.0518 17.1617 12.9109C17.6066 12.8409 18.0352 13.0082 18.3084 13.3219C18.5912 13.6465 18.7015 14.1281 18.494 14.5885C17.8602 15.9948 16.094 18.7468 12.1015 18.7468C8.10896 18.7468 6.34276 15.9948 5.70897 14.5885C5.50149 14.1281 5.61181 13.6465 5.89453 13.3219ZM8.31652 14.5798C7.90688 14.5406 7.62333 14.9735 7.8804 15.2948C8.66997 16.2818 9.98131 17.2468 12.1015 17.2468C14.2217 17.2468 15.533 16.2818 16.3226 15.2948C16.5796 14.9735 16.2961 14.5406 15.8865 14.5798C14.918 14.6725 13.6563 14.7468 12.1015 14.7468C10.5467 14.7468 9.28502 14.6725 8.31652 14.5798Z" fill="black"/>
<path fill-rule="evenodd" clip-rule="evenodd" d="M7.09479 7.0389C7.37617 6.70125 7.87799 6.65563 8.21564 6.93701L10.9442 9.21081C11.2016 9.42531 11.2971 9.77805 11.183 10.0931C11.069 10.4081 10.7698 10.618 10.4347 10.618C9.17293 10.618 7.33497 11.0266 6.30903 11.668C5.93635 11.901 5.44535 11.7878 5.21233 11.4151C4.97932 11.0425 5.09254 10.5515 5.46522 10.3184C6.16626 9.88012 7.08555 9.54823 8.01278 9.33063C8.19944 9.28683 8.2605 9.04627 8.11321 8.92353L7.19668 8.15975C6.85903 7.87838 6.81341 7.37655 7.09479 7.0389Z" fill="black"/>
<path fill-rule="evenodd" clip-rule="evenodd" d="M16.9052 7.0389C16.6238 6.70125 16.122 6.65563 15.7844 6.93701L13.0558 9.21081C12.7984 9.42531 12.7029 9.77805 12.817 10.0931C12.931 10.4081 13.2302 10.618 13.5653 10.618C14.8271 10.618 16.665 11.0266 17.691 11.668C18.0636 11.901 18.5547 11.7878 18.7877 11.4151C19.0207 11.0425 18.9075 10.5515 18.5348 10.3184C17.8337 9.88012 16.9145 9.54823 15.9872 9.33063C15.8006 9.28683 15.7395 9.04627 15.8868 8.92353L16.8033 8.15975C17.141 7.87838 17.1866 7.37655 16.9052 7.0389Z" fill="black"/>
</g>
<defs>
<clipPath id="clip0">
<rect width="24" height="24" fill="white"/>
</clipPath>
</defs>
</svg>
